resources/icons/16px/superscript.svg

<svg width="16" height="16" viewBox="0 0 16 16" fill="none" xmlns="http://www.w3.org/2000/svg">
<path fill-rule="evenodd" clip-rule="evenodd" d="M13.154 5.94406L13.17 5.93C13.35 5.79 13.53 5.65 13.74 5.51L14.37 5.06C14.58 4.9 14.78 4.73 14.98 4.55C15.18 4.37 15.35 4.17 15.5 3.96C15.65 3.75 15.78 3.51 15.87 3.26C15.96 3.01 16 2.72 16 2.41C16 2.16 15.96 1.9 15.88 1.62C15.81 1.33 15.68 1.07 15.49 0.83C15.31 0.59 15.06 0.39 14.76 0.23C14.47 0.08 14.1 0 13.65 0C13.25 0 12.89 0.08 12.58 0.23C12.27 0.39 12 0.6 11.79 0.85C11.57 1.12 11.41 1.44 11.3 1.81C11.19 2.18 11.14 2.58 11.14 3.01H12.33C12.34 2.74 12.36 2.48 12.41 2.24C12.45 2 12.52 1.79 12.62 1.62C12.71 1.44 12.84 1.3 13 1.2C13.16 1.1 13.35 1.05 13.59 1.05C13.85 1.05 14.06 1.1 14.22 1.19C14.37 1.28 14.5 1.4 14.59 1.54C14.68 1.68 14.74 1.83 14.77 1.99C14.8 2.15 14.82 2.3 14.82 2.44C14.81 2.75 14.74 3.02 14.6 3.26C14.46 3.49 14.28 3.71 14.07 3.91C13.85 4.12 13.61 4.3 13.36 4.48C13.1 4.66 12.85 4.84 12.61 5.02C12.11 5.38 11.72 5.8 11.44 6.29C11.16 6.78 11.01 7.35 11 8H15.99V6.86H12.44C12.49 6.69 12.58 6.53 12.71 6.37C12.8359 6.2247 12.99 6.08878 13.154 5.94406ZM6.19998 4.4C6.38884 4.14819 6.68523 4 6.99998 4C7.82403 4 8.29441 4.94076 7.79998 5.6L5.24998 9L7.79998 12.4C8.29441 13.0592 7.82403 14 6.99998 14C6.68523 14 6.38884 13.8518 6.19998 13.6L3.99998 10.6667L1.79998 13.6C1.61113 13.8518 1.31474 14 0.999982 14C0.175942 14 -0.294441 13.0592 0.199982 12.4L2.74998 9L0.199982 5.6C-0.294441 4.94076 0.175942 4 0.999982 4C1.31474 4 1.61113 4.14819 1.79998 4.4L3.99998 7.33333L6.19998 4.4Z" fill="black"/>
</svg>

<svg xmlns="http://www.w3.org/2000/svg" viewBox="0 0 16 16">
  <path d="m13.154 5.944.016-.014c.18-.14.36-.28.57-.42l.63-.45c.21-.16.41-.33.61-.51s.37-.38.52-.59.28-.45.37-.7.13-.54.13-.85c0-.25-.04-.51-.12-.79-.07-.29-.2-.55-.39-.79a2.2 2.2 0 0 0-.73-.6C14.47.08 14.1 0 13.65 0c-.4 0-.76.08-1.07.23-.31.16-.58.37-.79.62-.22.27-.38.59-.49.96s-.16.77-.16 1.2h1.19c.01-.27.03-.53.08-.77.04-.24.11-.45.21-.62.09-.18.22-.32.38-.42s.35-.15.59-.15c.26 0 .47.05.63.14.15.09.28.21.37.35q.135.21.18.45c.03.16.05.31.05.45-.01.31-.08.58-.22.82-.14.23-.32.45-.53.65-.22.21-.46.39-.71.57q-.39.27-.75.54c-.5.36-.89.78-1.17 1.27S11.01 7.35 11 8h4.99V6.86h-3.55c.05-.17.14-.33.27-.49.126-.145.28-.281.444-.426M6.2 4.4a1 1 0 0 1 1.6 1.2L5.25 9l2.55 3.4a1 1 0 0 1-1.6 1.2L4 10.667 1.8 13.6a1 1 0 0 1-1.6-1.2L2.75 9 .2 5.6a1 1 0 0 1 1.6-1.2L4 7.333z"/>
</svg>
